build/category/WatcherTestITOutline.svg

<svg xmlns="http://www.w3.org/2000/svg" fill="none" viewBox="0 0 24 24" focusable="false"><path d="M0 0H24V24H0z"/><path fill="#74767B" fill-rule="evenodd" d="M20 13.3984C20 13.8262 19.5587 14.1134 19.1515 13.9822C18.8972 13.9003 18.7 13.6676 18.7 13.4003L18.7 7C18.7 6.06112 17.9389 5.3 17 5.3L7 5.3C6.06112 5.3 5.3 6.06112 5.3 7L5.3 17C5.3 17.9389 6.06112 18.7 7 18.7L10.9334 18.7C11.2098 18.7 11.4339 18.9118 11.4932 19.1818C11.5781 19.5676 11.3181 20 10.9231 20L7 20C5.34315 20 4 18.6569 4 17L4 7C4 5.34315 5.34315 4 7 4L17 4C18.6569 4 20 5.34315 20 7L20 13.3984ZM8.66515 6.9559C8.30617 6.9559 8.01515 7.24692 8.01515 7.6059C8.01515 7.96489 8.30617 8.2559 8.66515 8.2559L11.35 8.2559L11.35 15.3988C11.35 15.7577 11.641 16.0488 12 16.0488C12.359 16.0488 12.65 15.7577 12.65 15.3988L12.65 8.25591L15.335 8.25591C15.6939 8.25591 15.985 7.96489 15.985 7.60591C15.985 7.24692 15.6939 6.9559 15.335 6.9559L8.66515 6.9559ZM21.5452 17.2666C22.1278 17.9944 22.121 19.0015 21.5343 19.726C20.7172 20.735 19.3024 22 17.3449 22C15.3838 22 13.9712 20.7305 13.1578 19.7206C12.5762 18.9985 12.5693 17.9975 13.1469 17.2721C13.95 16.2634 15.3535 14.9998 17.3449 14.9998C19.3326 14.9998 20.7383 16.2588 21.5452 17.2666ZM20.524 18.9079C19.7935 19.8099 18.7119 20.7 17.3449 20.7C15.9762 20.7 14.8971 19.8075 14.1702 18.9051C13.9671 18.6529 13.9686 18.3272 14.1639 18.0819C14.8727 17.1916 15.9423 16.2998 17.3449 16.2998C18.7457 16.2998 19.8179 17.1892 20.5304 18.0791C20.7278 18.3258 20.7294 18.6543 20.524 18.9079ZM17.3745 19.5242C17.9268 19.5242 18.3745 19.0765 18.3745 18.5242C18.3745 17.9719 17.9268 17.5242 17.3745 17.5242C16.8222 17.5242 16.3745 17.9719 16.3745 18.5242C16.3745 19.0765 16.8222 19.5242 17.3745 19.5242Z"/></svg>

<svg xmlns="http://www.w3.org/2000/svg" fill="none" viewBox="0 0 24 24" focusable="false"><path fill="#74767B" fill-rule="evenodd" d="M20 13.39c0 .43-.45.72-.85.59a.63.63 0 0 1-.45-.58V7c0-.94-.77-1.7-1.7-1.7H7c-.94 0-1.7.76-1.7 1.7v10c0 .93.76 1.7 1.7 1.7h3.93c.27 0 .5.21.56.48.08.38-.18.82-.57.82H7c-1.66 0-3-1.35-3-3V7c0-1.66 1.34-3 3-3h10c1.65 0 3 1.34 3 3zM8.66 6.95c-.36 0-.65.29-.65.65s.29.65.65.65h2.69v7.14c0 .36.29.65.65.65.35 0 .64-.29.64-.65V8.25h2.69c.36 0 .65-.29.65-.65s-.29-.65-.65-.65zm12.88 10.31c.58.73.58 1.74-.01 2.46-.82 1.01-2.23 2.28-4.19 2.28s-3.37-1.27-4.19-2.28c-.58-.73-.59-1.73-.01-2.45.81-1.01 2.21-2.28 4.2-2.28s3.39 1.26 4.2 2.27m-1.02 1.64c-.73.9-1.81 1.8-3.18 1.8s-2.45-.9-3.17-1.8a.624.624 0 0 1-.01-.82c.71-.89 1.78-1.79 3.18-1.79s2.47.89 3.19 1.78c.19.25.19.58-.01.83m-3.15.62c.55 0 1-.45 1-1s-.45-1-1-1-1 .45-1 1 .45 1 1 1"/></svg>
